!!!COM: Paul Hindemith
!!!OTL: [T682_Hin-w95p86-87m102-108]
!!!Xfilter: transpose -t P8 -s 39
**kern	**dynam	**kern	**dynam	**kern	**dynam	**kern	**dynam	**kern	**dynam	**kern	**dynam	**kern	**dynam	**kern	**dynam	**kern	**dynam	**kern	**dynam	**kern	**dynam	**kern	**dynam	**kern	**dynam	**kern	**dynam	**kern	**dynam	**kern	**dynam	**kern	**dynam	**kern	**dynam	**kern	**dynam	**kern	**dynam
*grp:A	*	*grp:A	*	*grp:A	*	*grp:B	*	*grp:B	*	*grp:C	*	*grp:C	*	*grp:C	*	*grp:C	*	*grp:C	*	*grp:A	*	*grp:A	*	*grp:A	*	*	*	*grp:D	*	*grp:D	*	*grp:D	*	*grp:D	*	*grp:D	*	*grp:D	*
*part20	*part20	*part19	*part19	*part18	*part18	*part17	*part17	*part16	*part16	*part15	*part15	*part14	*part14	*part13	*part13	*part12	*part12	*part11	*part11	*part10	*part10	*part9	*part9	*part8	*part8	*part7	*part7	*part6	*part6	*part5	*part5	*part4	*part4	*part3	*part3	*part2	*part2	*part1	*part1
*staff20	*	*staff19	*	*staff18	*	*staff17	*	*staff16	*	*staff15	*	*staff14	*	*staff13	*	*staff12	*	*staff11	*	*staff10	*	*staff9	*	*staff8	*	*staff7	*	*staff6	*	*staff5	*	*staff4	*	*staff3	*	*staff2	*	*staff1	*
*I"Contrabass	*	*I"Violoncello	*	*I"Viola	*	*I"Violin 2	*	*I"Violin 1	*	*I"Tambourine	*	*I"Horn in F 4	*	*I"Horn in F 3	*	*I"Horn in F 2	*	*I"Horn in F 1	*	*I"Contrabassoon	*	*I"Bassoon 2	*	*I"Bassoon 1	*	*I"Bass Clarinet in Bb	*	*I"Clarinet in Bb 2	*	*I"Clarinet in Bb 1	*	*I"Oboe 2	*	*I"Oboe 1	*	*I"Flute 1	*	*I"Piccolo	*
*I'Cb.	*	*I'Vc.	*	*I'Vla.	*	*I'2.Vln.	*	*I'1.Vln.	*	*I'Tamb.	*	*I'4.Hn.	*	*I'3.Hn.	*	*I'2.Hn.	*	*I'1.Hn.	*	*I'Cbsn.	*	*I'2.Bsn.	*	*I'1.Bsn.	*	*I'B. Cl.	*	*I'2.Cl.	*	*I'1.Cl.	*	*I'2.Ob.	*	*I'1.Ob.	*	*I'1.Fl.	*	*I'Picc.	*
*ICstr	*	*ICstr	*	*ICstr	*	*ICstr	*	*ICstr	*	*ICidio	*	*ICbras	*	*ICbras	*	*ICbras	*	*ICbras	*	*ICww	*	*ICww	*	*ICww	*	*ICww	*	*ICww	*	*ICww	*	*ICww	*	*ICww	*	*ICww	*	*ICww	*
*Icbass	*	*Icello	*	*Iviola	*	*Ivioln	*	*Ivioln	*	*Itrine	*	*Icor	*	*Icor	*	*Icor	*	*Icor	*	*Ifag_c	*	*Ifagot	*	*Ifagot	*	*Iclarb	*	*Iclars	*	*Iclars	*	*Ioboe	*	*Ioboe	*	*Iflt	*	*Ipicco	*
*	*	*	*	*	*	*	*	*	*	*stria1	*	*	*	*	*	*	*	*	*	*	*	*	*	*	*	*	*	*	*	*	*	*	*	*	*	*	*	*	*
*clefF4	*	*clefF4	*	*clefC3	*	*clefG2	*	*clefG2	*	*clefX	*	*clefG2	*	*clefG2	*	*clefG2	*	*clefG2	*	*clefF4	*	*clefF4	*	*clefF4	*	*clefF4	*	*clefG2	*	*clefG2	*	*clefG2	*	*clefG2	*	*clefG2	*	*clefG2	*
*ITrd7c12	*	*	*	*	*	*	*	*	*	*	*	*ITrd4c7	*	*ITrd4c7	*	*ITrd4c7	*	*ITrd4c7	*	*ITrd7c12	*	*	*	*	*	*ITrd1c2	*	*ITrd1c2	*	*ITrd1c2	*	*	*	*	*	*	*	*ITrd-7c-12	*
*k[]	*	*k[]	*	*k[]	*	*k[]	*	*k[]	*	*k[]	*	*k[b-]	*	*k[b-]	*	*k[b-]	*	*k[b-]	*	*k[]	*	*k[]	*	*k[]	*	*k[b-e-]	*	*k[b-e-]	*	*k[b-e-]	*	*k[]	*	*k[]	*	*k[]	*	*k[]	*
*	*	*	*	*	*	*	*	*	*	*C:	*	*	*	*	*	*	*	*	*	*	*	*	*	*	*	*	*	*	*	*	*	*	*	*	*	*	*	*	*
*M9/8	*	*M9/8	*	*M9/8	*	*M9/8	*	*M9/8	*	*M9/8	*	*M9/8	*	*M9/8	*	*M9/8	*	*M9/8	*	*M9/8	*	*M9/8	*	*M9/8	*	*M9/8	*	*M9/8	*	*M9/8	*	*M9/8	*	*M9/8	*	*M9/8	*	*M9/8	*
=1	=1	=1	=1	=1	=1	=1	=1	=1	=1	=1	=1	=1	=1	=1	=1	=1	=1	=1	=1	=1	=1	=1	=1	=1	=1	=1	=1	=1	=1	=1	=1	=1	=1	=1	=1	=1	=1	=1	=1
!	!	!	!	!	!LO:DY:ed=brack	!	!	!	!	!	!	!	!	!	!	!	!	!	!	!	!	!	!LO:DY:ed=brack	!	!LO:DY:ed=brack	!	!	!	!	!	!	!	!	!	!	!	!	!LO:TX:t=[quarter-dot]=69	!
4.r	.	4.r	.	8e)j	mf	8r	.	8r	.	8r	.	8r	.	8r	.	8r	.	8r	.	4.r	.	8e)j	mf	8e)j	mf	8%9r	.	4.r	.	4.r	.	4.r	.	(16eeLL	f	(16eeeLL	f	(16eeeeLL	f
.	.	.	.	.	.	.	.	.	.	.	.	.	.	.	.	.	.	.	.	.	.	.	.	.	.	.	.	.	.	.	.	.	.	16b	.	16bb	.	16bbb	.
.	.	.	.	8r	.	8r	.	8r	.	8Re/L	mf	8A'L	f	8A'L	f	8e'L	f	8a'L	f	.	.	8r	.	8r	.	.	.	.	.	.	.	.	.	16cc#X	.	16ccc#X	.	16cccc#X	.
.	.	.	.	.	.	.	.	.	.	.	.	.	.	.	.	.	.	.	.	.	.	.	.	.	.	.	.	.	.	.	.	.	.	16dd	.	16ddd	.	16dddd	.
.	.	.	.	8r	.	[8e	f	[8e	f	16Re/L	.	16eL	.	16AL	.	16eL	.	16aL	.	.	.	8r	.	8r	.	.	.	.	.	.	.	.	.	16a	.	16aa	.	16aaa	.
.	.	.	.	.	.	.	.	.	.	16Re/JJ	.	16eJJ	.	16AJJ	.	16eJJ	.	16aJJ	.	.	.	.	.	.	.	.	.	.	.	.	.	.	.	16eJJ	.	16eeJJ	.	16eeeJJ	.
[4.AAA	f	(4.C#X~t	f	(4.c#X~t	f	4.e_	.	4.e_	.	8Re/L	.	8a'L	.	8A'L	.	8e'L	.	8a'L	.	[4.AAA	f	[4.AA	f	[4.A	f	.	.	4.r	.	4.r	.	4.r	.	16f#XLL	.	16ff#XLL	.	16fff#XLL	.
.	.	.	.	.	.	.	.	.	.	.	.	.	.	.	.	.	.	.	.	.	.	.	.	.	.	.	.	.	.	.	.	.	.	16a	.	16aa	.	16aaa	.
.	.	.	.	.	.	.	.	.	.	8r	.	8r'	.	8G'	.	8d'	.	8g'	.	.	.	.	.	.	.	.	.	.	.	.	.	.	.	16b	.	16bb	.	16bbb	.
.	.	.	.	.	.	.	.	.	.	.	.	.	.	.	.	.	.	.	.	.	.	.	.	.	.	.	.	.	.	.	.	.	.	16dd	.	16ddd	.	16dddd	.
.	.	.	.	.	.	.	.	.	.	8Re/J	.	8c#X'J	.	8F#X'J	.	8c#X'J	.	8f#X'J	.	.	.	.	.	.	.	.	.	.	.	.	.	.	.	16ee	.	16eee	.	16eeee	.
.	.	.	.	.	.	.	.	.	.	.	.	.	.	.	.	.	.	.	.	.	.	.	.	.	.	.	.	.	.	.	.	.	.	16cc#JJ	.	16ccc#JJ	.	16cccc#JJ	.
4AAA]	.	4Cn)	.	4cn)	.	4e]	.	4e]	.	4.Ret/	.	8A'L	.	8A'L	.	8e'L	.	8a'L	.	4AAA]	.	4AA]	.	4A]	.	.	.	8r	.	8r	.	8r	.	8a)	.	8aa)	.	8aaa)	.
.	.	.	.	.	.	.	.	.	.	.	.	8f#X'	.	8BX'	.	8f#X'	.	8bX'	.	.	.	.	.	.	.	.	.	(16eeXLL	f	(16eeXLL	f	(16eeLL	f	8r	.	8r	.	8r	.
.	.	.	.	.	.	.	.	.	.	.	.	.	.	.	.	.	.	.	.	.	.	.	.	.	.	.	.	16dd	.	16dd	.	16dd	.	.	.	.	.	.	.
8r	.	8r	.	8r	.	(8e	.	(8e	.	.	.	8c'J	.	8c'J	.	8g'J	.	8cc'J	.	8r	.	8r	.	8r	.	.	.	16bX	.	16bX	.	16b	.	8r	.	8r	.	8r	.
.	.	.	.	.	.	.	.	.	.	.	.	.	.	.	.	.	.	.	.	.	.	.	.	.	.	.	.	16aJJ	.	16aJJ	.	16aJJ	.	.	.	.	.	.	.
=2	=2	=2	=2	=2	=2	=2	=2	=2	=2	=2	=2	=2	=2	=2	=2	=2	=2	=2	=2	=2	=2	=2	=2	=2	=2	=2	=2	=2	=2	=2	=2	=2	=2	=2	=2	=2	=2	=2	=2
[4.EEE	.	(4.GG#X~t	.	(4.G#X~t	.	[4.b)	.	[4.b)	.	4.r	.	8d#X'L	.	8G#X'L	.	8d#X'L	.	8g#X'L	.	[4.EEE	.	[4.EE	.	[4.E	.	8%9r	.	16bXLL	.	16bXLL	.	16bLL	.	4.r	.	4.r	.	4.r	.
.	.	.	.	.	.	.	.	.	.	.	.	.	.	.	.	.	.	.	.	.	.	.	.	.	.	.	.	16g#X	.	16g#X	.	16g#X	.	.	.	.	.	.	.
.	.	.	.	.	.	.	.	.	.	.	.	8f#X'	.	8F#X'	.	8c#X'	.	8f#X'	.	.	.	.	.	.	.	.	.	16a	.	16a	.	16a	.	.	.	.	.	.	.
.	.	.	.	.	.	.	.	.	.	.	.	.	.	.	.	.	.	.	.	.	.	.	.	.	.	.	.	16b	.	16b	.	16b	.	.	.	.	.	.	.
.	.	.	.	.	.	.	.	.	.	.	.	8c'J	.	8F'J	.	8c'J	.	8f'J	.	.	.	.	.	.	.	.	.	16dd	.	16dd	.	16dd	.	.	.	.	.	.	.
.	.	.	.	.	.	.	.	.	.	.	.	.	.	.	.	.	.	.	.	.	.	.	.	.	.	.	.	16ccJJ	.	16ccJJ	.	16ccnJJ	.	.	.	.	.	.	.
!	!	!	!	!	!	!	!	!LO:TX:t=P:problem:originally crotchet duplets	!	!	!	!	!	!	!	!	!	!	!	!	!	!	!	!	!	!	!	!	!	!	!	!	!	!	!	!	!	!	!
4EEE]	.	4GGn)	.	4Gn)	.	(16%3bL]	.	(16%3bL]	.	4.r	.	4.e	.	4.Et	.	4.BXt	.	4.et	.	4EEE]	.	4EE]	.	4E]	.	.	.	16bLL	.	16bLL	.	16bLL	.	8r	.	8r	.	8r	.
.	.	.	.	.	.	.	.	.	.	.	.	.	.	.	.	.	.	.	.	.	.	.	.	.	.	.	.	16aJ	.	16aJ	.	16aJ	.	.	.	.	.	.	.
.	.	.	.	.	.	.	.	.	.	.	.	.	.	.	.	.	.	.	.	.	.	.	.	.	.	.	.	8eXJ)	.	8eXJ)	.	8eJ)	.	8r	.	8r	.	8r	.
.	.	.	.	.	.	16%3aJ)	.	16%3aJ)	.	.	.	.	.	.	.	.	.	.	.	.	.	.	.	.	.	.	.	.	.	.	.	.	.	.	.	.	.	.	.
8r	.	8r	.	8r	.	.	.	.	.	.	.	.	.	.	.	.	.	.	.	8r	.	8r	.	8r	.	.	.	8r	.	8r	.	8r	.	(16eeLL	.	(16eeeLL	.	(16eeeLL	.
.	.	.	.	.	.	.	.	.	.	.	.	.	.	.	.	.	.	.	.	.	.	.	.	.	.	.	.	.	.	.	.	.	.	16ddJJ	.	16dddJJ	.	16dddJJ	.
[4.BBB	.	(4.D#X~t	.	(4.d#X~t	.	[4.b	.	[4.b	.	8r	.	8r	.	8r	.	8r	.	8r	.	[4.BBB	.	[4.BB	.	[4.B	.	.	.	4.r	.	4.r	.	4.r	.	16bLL	.	16bbLL	.	16bbLL	.
.	.	.	.	.	.	.	.	.	.	.	.	.	.	.	.	.	.	.	.	.	.	.	.	.	.	.	.	.	.	.	.	.	.	16a	.	16aa	.	16aa	.
.	.	.	.	.	.	.	.	.	.	8Re/L	mf	8F#XL	.	8F#XL	.	8BL	.	8f#XL	.	.	.	.	.	.	.	.	.	.	.	.	.	.	.	16b	.	16bb	.	16bb	.
.	.	.	.	.	.	.	.	.	.	.	.	.	.	.	.	.	.	.	.	.	.	.	.	.	.	.	.	.	.	.	.	.	.	16ff#X	.	16fff#X	.	16fff#X	.
.	.	.	.	.	.	.	.	.	.	16Re/L	.	16F#L	.	16BXL	.	16BL	.	16f#L	.	.	.	.	.	.	.	.	.	.	.	.	.	.	.	16dd#X	.	16ddd#X	.	16ddd#X	.
.	.	.	.	.	.	.	.	.	.	16Re/JJ	.	16F#JJ	.	16BJJ	.	16BJJ	.	16f#JJ	.	.	.	.	.	.	.	.	.	.	.	.	.	.	.	16aa#XJJ	.	16aa#XJJ	.	16aaa#XJJ	.
=3	=3	=3	=3	=3	=3	=3	=3	=3	=3	=3	=3	=3	=3	=3	=3	=3	=3	=3	=3	=3	=3	=3	=3	=3	=3	=3	=3	=3	=3	=3	=3	=3	=3	=3	=3	=3	=3	=3	=3
4BBB]	.	4Dn)	.	4dn)	.	4b]	.	4b]	.	8Re/L	.	8F#XL	.	8f#XL	.	8BXL	.	8f#XL	.	4BBB]	.	4BB]	.	4B]	.	8%9r	.	4.r	.	4.r	.	4.r	.	16aanLL	.	16aanLL	.	16aaaLL	.
.	.	.	.	.	.	.	.	.	.	.	.	.	.	.	.	.	.	.	.	.	.	.	.	.	.	.	.	.	.	.	.	.	.	16gg#X	.	16gg#X	.	16ggg#X	.
.	.	.	.	.	.	.	.	.	.	8r	.	8E	.	8A	.	8A	.	8e	.	.	.	.	.	.	.	.	.	.	.	.	.	.	.	16ff#X	.	16ff#X	.	16fff#X	.
.	.	.	.	.	.	.	.	.	.	.	.	.	.	.	.	.	.	.	.	.	.	.	.	.	.	.	.	.	.	.	.	.	.	16eeJ	.	16eeJ	.	16eeeJ	.
8r	.	8r	.	8r	.	[8cc#X	.	[8cc#X	.	8Re/J	.	8DJ	.	8dJ	.	8GJ	.	8dJ	.	8r	.	8r	.	8r	.	.	.	.	.	.	.	.	.	8ff#J)	.	8ff#J)	.	8fff#J)	.
[4.FFF#X	.	(4.A#X~t	.	(4.a#X~t	.	(4cc#]	.	(4cc#]	.	4.Ret/	.	8C#XL	.	8c#XL	.	8F#XL	.	8c#XL	.	[4.FFF#X	.	[4.FF#X	.	[4.F#X	.	.	.	(16eXLL	.	(16eeXLL	.	(16eeLL	.	4.r	.	4.r	.	4.r	.
.	.	.	.	.	.	.	.	.	.	.	.	.	.	.	.	.	.	.	.	.	.	.	.	.	.	.	.	16d	.	16dd	.	16dd	.	.	.	.	.	.	.
.	.	.	.	.	.	.	.	.	.	.	.	8F#	.	8f#	.	8c#X	.	8f#	.	.	.	.	.	.	.	.	.	16c#X	.	16cc#X	.	16cc#X	.	.	.	.	.	.	.
.	.	.	.	.	.	.	.	.	.	.	.	.	.	.	.	.	.	.	.	.	.	.	.	.	.	.	.	16BX	.	16bX	.	16b	.	.	.	.	.	.	.
.	.	.	.	.	.	8dd)	.	8dd)	.	.	.	8A#XJ	.	8a#XJ	.	8f#XJ	.	8a#XJ	.	.	.	.	.	.	.	.	.	16c#	.	16cc#	.	16cc#	.	.	.	.	.	.	.
.	.	.	.	.	.	.	.	.	.	.	.	.	.	.	.	.	.	.	.	.	.	.	.	.	.	.	.	16EXJJ	.	16eXJJ	.	16eJJ	.	.	.	.	.	.	.
4FFF#]	.	4An)	.	4an)	.	[4.dd~	.	[4.dd~	.	4.r	.	8c#XL	.	8f#L	.	8f#L	.	8cc#XL	.	4FFF#]	.	4FF#]	.	4F#]	.	.	.	16F#XLL	.	16f#XLL	.	16f#XLL	.	4.r	.	4.r	.	4.r	.
.	.	.	.	.	.	.	.	.	.	.	.	.	.	.	.	.	.	.	.	.	.	.	.	.	.	.	.	16A	.	16a	.	16a	.	.	.	.	.	.	.
.	.	.	.	.	.	.	.	.	.	.	.	8BX	.	8BX	.	8e	.	8bX	.	.	.	.	.	.	.	.	.	16B	.	16b	.	16b	.	.	.	.	.	.	.
.	.	.	.	.	.	.	.	.	.	.	.	.	.	.	.	.	.	.	.	.	.	.	.	.	.	.	.	16E	.	16e	.	16e	.	.	.	.	.	.	.
8r	.	8r	.	8r	.	.	.	.	.	.	.	8AJ	.	8dJ	.	8dJ	.	8aJ	.	8r	.	8r	.	8r	.	.	.	16F#	.	16f#	.	16f#	.	.	.	.	.	.	.
.	.	.	.	.	.	.	.	.	.	.	.	.	.	.	.	.	.	.	.	.	.	.	.	.	.	.	.	16DJJ	.	16dJJ	.	16dJJ	.	.	.	.	.	.	.
=4	=4	=4	=4	=4	=4	=4	=4	=4	=4	=4	=4	=4	=4	=4	=4	=4	=4	=4	=4	=4	=4	=4	=4	=4	=4	=4	=4	=4	=4	=4	=4	=4	=4	=4	=4	=4	=4	=4	=4
*M6/8	*	*M6/8	*	*M6/8	*	*M6/8	*	*M6/8	*	*M6/8	*	*M6/8	*	*M6/8	*	*M6/8	*	*M6/8	*	*M6/8	*	*M6/8	*	*M6/8	*	*M6/8	*	*M6/8	*	*M6/8	*	*M6/8	*	*M6/8	*	*M6/8	*	*M6/8	*
[4.GGG	>	(4.BB~t	>	(4.B~t	>	(4dd]	>	(4dd]	>	4%3r	.	4BX	.	8r	.	4e	.	4bX	.	[4.GGG	>	[4.G	>	[4.GG	>	4%3r	.	8G)	.	8g)	.	8g)	.	8r	.	8r	.	8r	.
.	.	.	.	.	.	.	.	.	.	.	.	.	.	8BXL	mf	.	.	.	.	.	.	.	.	.	.	.	.	8r	.	8r	.	8r	.	(16eeLL	>	(16eeeLL	>	(16eeeLL	>
.	.	.	.	.	.	.	.	.	.	.	.	.	.	.	.	.	.	.	.	.	.	.	.	.	.	.	.	.	.	.	.	.	.	16dd	.	16ddd	.	16ddd	.
.	.	.	.	.	.	8g)	.	8g)	.	.	.	8r	.	16BL	.	8r	.	8r	.	.	.	.	.	.	.	.	.	8r	.	8r	.	8r	.	16a	.	16aa	.	16aa	.
.	.	.	.	.	.	.	.	.	.	.	.	.	.	16BJJ	.	.	.	.	.	.	.	.	.	.	.	.	.	.	.	.	.	.	.	16bJJ	.	16bbJJ	.	16bbJJ	.
4GGG]	mf ]	4BB-X)	mf ]	4B-X)	mf ]	[4.g	mf ]	[4.g	mf ]	.	.	4.r	.	8e	.	4.r	.	8r	.	4GGG]	mf ]	4G]	mf ]	4GG]	mf ]	.	.	4.r	.	4.r	.	4.r	.	16ccLL	mf ]	16cccLL	mf ]	16cccLL	mf ]
.	.	.	.	.	.	.	.	.	.	.	.	.	.	.	.	.	.	.	.	.	.	.	.	.	.	.	.	.	.	.	.	.	.	16dd	.	16ddd	.	16ddd	.
.	.	.	.	.	.	.	.	.	.	.	.	.	.	8r	.	.	.	8dL	mf	.	.	.	.	.	.	.	.	.	.	.	.	.	.	16ff	.	16fffn	.	16fff	.
.	.	.	.	.	.	.	.	.	.	.	.	.	.	.	.	.	.	.	.	.	.	.	.	.	.	.	.	.	.	.	.	.	.	16ee	.	16eee	.	16eee	.
8r	.	8r	.	8r	.	.	.	.	.	.	.	.	.	8r	.	.	.	16dL	.	8r	.	8r	.	8r	.	.	.	.	.	.	.	.	.	16a	.	16aa	.	16aaa	.
.	.	.	.	.	.	.	.	.	.	.	.	.	.	.	.	.	.	16dJJ	.	.	.	.	.	.	.	.	.	.	.	.	.	.	.	16b-XJJ	.	16bb-XJJ	.	16bbb-XJJ	.
=5	=5	=5	=5	=5	=5	=5	=5	=5	=5	=5	=5	=5	=5	=5	=5	=5	=5	=5	=5	=5	=5	=5	=5	=5	=5	=5	=5	=5	=5	=5	=5	=5	=5	=5	=5	=5	=5	=5	=5
*M9/8	*	*M9/8	*	*M9/8	*	*M9/8	*	*M9/8	*	*M9/8	*	*M9/8	*	*M9/8	*	*M9/8	*	*M9/8	*	*M9/8	*	*M9/8	*	*M9/8	*	*M9/8	*	*M9/8	*	*M9/8	*	*M9/8	*	*M9/8	*	*M9/8	*	*M9/8	*
[4.BBB-X	.	(4.D~	.	(4.d~	.	8gL]	.	8gL]	.	8%9r	.	4.r	.	4.r	.	8r	.	8g	.	[4.BBBB-X	.	[4.BBB-X	.	[4.BB-X	.	8%9r	.	8r	.	8r	.	8r	.	16ffLL	.	16fffLL	.	16fffLL	.
.	.	.	.	.	.	.	.	.	.	.	.	.	.	.	.	.	.	.	.	.	.	.	.	.	.	.	.	.	.	.	.	.	.	16ccJ	.	16cccJ	.	16cccJ	.
.	.	.	.	.	.	(8b-X~	.	(8b-X~	.	.	.	.	.	.	.	8FL	.	8r	.	.	.	.	.	.	.	.	.	8r	.	8r	.	8r	.	8ddJ)	.	8dddJ)	.	8dddJ)	.
.	.	.	.	.	.	8e-XJ)	.	8e-XJ)	.	.	.	.	.	.	.	16FL	.	8r	.	.	.	.	.	.	.	.	.	(16B-LL	.	(16b-LL	.	(16b-XLL	.	8r	.	8r	.	8r	.
.	.	.	.	.	.	.	.	.	.	.	.	.	.	.	.	16FJJ	.	.	.	.	.	.	.	.	.	.	.	16cJJ	.	16ccJJ	.	16ccJJ	.	.	.	.	.	.	.
4BBB-]	.	4D-X)	.	4d-X)	.	4.f	.	4.f	.	.	.	8r	.	8r	.	8B-	.	4.r	.	4BBBB-]	.	4BBB-]	.	4BB-]	.	.	.	16d-XLL	.	16dd-XLL	.	16dd-XLL	.	4.r	.	4.r	.	4.r	.
.	.	.	.	.	.	.	.	.	.	.	.	.	.	.	.	.	.	.	.	.	.	.	.	.	.	.	.	16A-X	.	16a-X	.	16aa-X	.	.	.	.	.	.	.
.	.	.	.	.	.	.	.	.	.	.	.	8BB-L	mf	8B-L	mf	8r	.	.	.	.	.	.	.	.	.	.	.	16F	.	16f	.	16ff	.	.	.	.	.	.	.
.	.	.	.	.	.	.	.	.	.	.	.	.	.	.	.	.	.	.	.	.	.	.	.	.	.	.	.	16B-	.	16b-	.	16bb-X	.	.	.	.	.	.	.
8r	.	8r~	.	8r~	.	.	.	.	.	.	.	16BB-L	.	16B-L	.	8r	.	.	.	8r	.	8r	.	8r	.	.	.	16A-	.	16a-	.	16aa-	.	.	.	.	.	.	.
.	.	.	.	.	.	.	.	.	.	.	.	16BB-JJ	.	16B-JJ	.	.	.	.	.	.	.	.	.	.	.	.	.	16e-JJ	.	16e-JJ	.	16ee-XJJ	.	.	.	.	.	.	.
[4.FFF	.	(4.AAn~	.	(4.An~	.	4.c	.	4.c	.	.	.	8E-XL	.	8e-X	.	4.r	.	8r	.	[4.FFF	.	[4.F	.	[4.FF	.	.	.	16cLL	.	16ccLL	.	16ccLL	.	4.r	.	4.r	.	4.r	.
.	.	.	.	.	.	.	.	.	.	.	.	.	.	.	.	.	.	.	.	.	.	.	.	.	.	.	.	16B-	.	16b-	.	16b-	.	.	.	.	.	.	.
.	.	.	.	.	.	.	.	.	.	.	.	16E-L	.	8r	.	.	.	16e-XLL	.	.	.	.	.	.	.	.	.	16c	.	16cc	.	16cc	.	.	.	.	.	.	.
.	.	.	.	.	.	.	.	.	.	.	.	16E-J	.	.	.	.	.	16e-J	.	.	.	.	.	.	.	.	.	16gJ	.	16gJ	.	16ggJ	.	.	.	.	.	.	.
.	.	.	.	.	.	.	.	.	.	.	.	8A-XJ	.	8r	.	.	.	8a-XJ	.	.	.	.	.	.	.	.	.	8fJ)	.	8fJ)	.	8ffJ)	.	.	.	.	.	.	.
=6	=6	=6	=6	=6	=6	=6	=6	=6	=6	=6	=6	=6	=6	=6	=6	=6	=6	=6	=6	=6	=6	=6	=6	=6	=6	=6	=6	=6	=6	=6	=6	=6	=6	=6	=6	=6	=6	=6	=6
4FFF]	.	4AA-X)	.	4A-X)	.	(8b-X~L	.	(8b-X~L	.	4.r	.	4.r	.	4.r	.	16A-XLL	.	16a-XLL	.	4FFF]	.	4F]	.	4FF]	.	8%9r	.	4.r	.	4.r	.	4.r	.	(16fLL	<	(16ffLL	<	(16fffLL	<
.	.	.	.	.	.	.	.	.	.	.	.	.	.	.	.	16A-J	.	16a-J	.	.	.	.	.	.	.	.	.	.	.	.	.	.	.	16e-X	.	16ee-X	.	16eee-X	.
.	.	.	.	.	.	8e-X)	.	8e-X)	.	.	.	.	.	.	.	8d-X	.	8dd-XJ	.	.	.	.	.	.	.	.	.	.	.	.	.	.	.	16a-X	.	16aa-X	.	16aaa-X	.
.	.	.	.	.	.	.	.	.	.	.	.	.	.	.	.	.	.	.	.	.	.	.	.	.	.	.	.	.	.	.	.	.	.	16an	.	16aan	.	16aaa	.
8r	.	8r	.	8r	.	[8fJ	.	[8fJ	.	.	.	.	.	.	.	16d-L	.	8r	.	8r	.	8r	.	8r	.	.	.	.	.	.	.	.	.	16b-X	.	16bb-X	.	16bbb-X	.
.	.	.	.	.	.	.	.	.	.	.	.	.	.	.	.	16d-JJ	.	.	.	.	.	.	.	.	.	.	.	.	.	.	.	.	.	16ccJJ	.	16cccJJ	.	16ccccJJ	.
[4.EEE-X	.	(4.GG~	.	(4.G~	.	4f]	.	4f]	.	8r	.	8r	.	8r	.	4f	.	8r	.	[4.EEE-X	<	[4.EE-X	<	[4.E-X	<	.	.	4.r	.	4.r	.	4.r	.	16dd-XLL	.	16ddd-XLL	.	16dddd-XLL	.
.	.	.	.	.	.	.	.	.	.	.	.	.	.	.	.	.	.	.	.	.	.	.	.	.	.	.	.	.	.	.	.	.	.	16b-	.	16bb-	.	16bbb-	.
.	.	.	.	.	.	.	.	.	.	8Re/L	p	8cL	.	8fL	.	.	.	8ccL	.	.	.	.	.	.	.	.	.	.	.	.	.	.	.	16ff	.	16fff	.	16ffff	.
.	.	.	.	.	.	.	.	.	.	.	.	.	.	.	.	.	.	.	.	.	.	.	.	.	.	.	.	.	.	.	.	.	.	16ee-X	.	16eee-X	.	16eeee-X	.
.	.	.	.	.	.	[8c	.	[8c	.	16Re/L	<	16cL	.	16fL	.	8r	.	16ccL	.	.	.	.	.	.	.	.	.	.	.	.	.	.	.	16b-	.	16bb-	.	16bbb-	.
.	.	.	.	.	.	.	.	.	.	16Re/JJ	.	16cJJ	.	16fJJ	.	.	.	16ccJJ	.	.	.	.	.	.	.	.	.	.	.	.	.	.	.	16bnJJ	.	16bbnJJ	.	16bbbJJ	.
4EEE-]	<	4FF#X)	<	4F#X)	<	4c]	<	4c]	<	8Re/L	.	8cL	<	8fL	<	8cL	<	8ccL	<	4EEE-]	.	4EE-]	.	4E-]	.	.	.	8r	.	8r	.	8r	.	8cc)	.	8ccc)	.	8cccc)	.
.	.	.	.	.	.	.	.	.	.	8r	.	8BX	.	8e	.	8e	.	8bX	.	.	.	.	.	.	.	.	.	(16dLL	<	(16ddLL	<	(16ddLL	<	8r	.	8r	.	8r	.
.	.	.	.	.	.	.	.	.	.	.	.	.	.	.	.	.	.	.	.	.	.	.	.	.	.	.	.	16eX	.	16eeX	.	16ee	.	.	.	.	.	.	.
8r	.	8r	.	8r	.	(8b-~	.	(8b-~	.	8Re/J	.	8B-J	.	8e-XJ	.	8B-J	.	8a-J	.	8r	.	8r	.	8r	.	.	.	16g	.	16gg	.	16gg	.	8r	.	8r	.	8r	.
.	.	.	.	.	.	.	.	.	.	.	.	.	.	.	.	.	.	.	.	.	.	.	.	.	.	.	.	16fJJ	.	16ffJJ	.	16ffJJ	.	.	.	.	.	.	.
=7	=7	=7	=7	=7	=7	=7	=7	=7	=7	=7	=7	=7	=7	=7	=7	=7	=7	=7	=7	=7	=7	=7	=7	=7	=7	=7	=7	=7	=7	=7	=7	=7	=7	=7	=7	=7	=7	=7	=7
*M6/8	*	*M6/8	*	*M6/8	*	*M6/8	*	*M6/8	*	*M6/8	*	*M6/8	*	*M6/8	*	*M6/8	*	*M6/8	*	*M6/8	*	*M6/8	*	*M6/8	*	*M6/8	*	*M6/8	*	*M6/8	*	*M6/8	*	*M6/8	*	*M6/8	*	*M6/8	*
[4.DDD-X	.	(4.FFn~	.	(4.Fn~	.	8e-X)	.	8e-X)	.	4.Ret/	.	8d-XL	.	8g-XL	.	8g-XL	.	8dd-XL	.	[4.DDD-X	.	[4.DD-X	.	[4.D-X	.	4.r	.	16b-LL	.	16b-LL	.	16bb-XLL	.	4.r	.	4.r	.	4.r	.
.	.	.	.	.	.	.	.	.	.	.	.	.	.	.	.	.	.	.	.	.	.	.	.	.	.	.	.	16cc-X	.	16cc-X	.	16ccc-X	.	.	.	.	.	.	.
.	.	.	.	.	.	4f	.	4f	.	.	.	8c	.	8f	.	8c	.	8cc	.	.	.	.	.	.	.	.	.	16b-	.	16b-	.	16bb-	.	.	.	.	.	.	.
.	.	.	.	.	.	.	.	.	.	.	.	.	.	.	.	.	.	.	.	.	.	.	.	.	.	.	.	16f	.	16ff	.	16ff	.	.	.	.	.	.	.
.	.	.	.	.	.	.	.	.	.	.	.	8B-J	.	8e-XJ	.	8B-J	.	8b-J	.	.	.	.	.	.	.	.	.	16g	.	16gg	.	16gg	.	.	.	.	.	.	.
.	.	.	.	.	.	.	.	.	.	.	.	.	.	.	.	.	.	.	.	.	.	.	.	.	.	.	.	16a-XJJ	.	16aa-XJJ	.	16aa-XJJ	.	.	.	.	.	.	.
!	!	!	!	!	!	!	!	!	!	!	!	!	!	!	!	!	!	!	!	!	!	!	!	!	!	!	!LO:DY:t=%s cresc.	!	!	!	!	!	!	!	!	!	!	!	!
4DDD-]	.	4EEn)	.	4En)	.	[4.c	.	[4.c	.	4.r	.	8cL	.	8gL	.	8cL	.	8ccL	.	4DDD-]	.	4DD-]	.	4D-]	.	[4.c	mf	16gLL	.	16ggLL	.	16ggLL	.	8r	.	8r	.	8r	.
.	.	.	.	.	.	.	.	.	.	.	.	.	.	.	.	.	.	.	.	.	.	.	.	.	.	.	.	16fJ	.	16ffJ	.	16ffJ	.	.	.	.	.	.	.
.	.	.	.	.	.	.	.	.	.	.	.	8B-	.	8f	.	8f	.	8b-	.	.	.	.	.	.	.	.	.	8cJ)	.	8ccJ)	.	8ccnJ)	.	8r	.	8r	.	8r	.
8r	.	8r	.	8r	.	.	.	.	.	.	.	8AJ	.	8eJ	.	8aJ	.	8aJ	.	8r	.	8r	.	8r	.	.	.	8r	.	8r	.	8r	.	(16ccLL	.	(16ccLL	.	(16cccLL	.
.	.	.	.	.	.	.	.	.	.	.	.	.	.	.	.	.	.	.	.	.	.	.	.	.	.	.	.	.	.	.	.	.	.	16ddJJ)	.	16ddJJ)	.	16dddJJ)	.
=	=	=	=	=	=	=	=	=	=	=	=	=	=	=	=	=	=	=	=	=	=	=	=	=	=	=	=	=	=	=	=	=	=	=	=	=	=	=	=
*-	*-	*-	*-	*-	*-	*-	*-	*-	*-	*-	*-	*-	*-	*-	*-	*-	*-	*-	*-	*-	*-	*-	*-	*-	*-	*-	*-	*-	*-	*-	*-	*-	*-	*-	*-	*-	*-	*-	*-
!!!system-decoration: [(s1,s2[(s3,s4)][(s5,s6)]s7[(s8,s9)]s10)][([(s11,s12,s13,s14)])]s15[([(s16,s17)]s18,s19,s20)]
!!!Xfilter: slurcheck
!!!RDF**kern: j = marked note, color="magenta", text="extra)"
